X: 375
T: Barndance Polka
B: jims roots
M:C|
L:1/8
R: Polka
Q: 1/4=100
K:C
V:1 
%N:From a transcription by John Lamancusa, by permission. See http://www.mne.psu.edu/lamancusa/tunes.htm
B2 | "C"c2E2E2 EF | G2E2E2 EG | "F"FEDC "G"D2 DE | "F"FEDE "G"D2B2 |"C"c2E2E2 EF |
G2E2E3(D | "G"D)EGA BcdB | "C"c2c2c2B2 | c2E2E2 EF |G2E2E2 EG |
"F"FEDB, "G"G,B,DE | "F"FEDB, "G"G,B,DB | "C"c2E2E2 EF |G2E2E3(D |
"G"D)EGA BcdB | "C"c2c2c3 (D || [K:G]"G"D)EDC B,CDE | G2A2B3c |
"D"d2 (3dcB "Am"A2 (3ABc | "C"e2d2"G"B3 (D |D)EDC B,CDE | G2A2 B3c |
"D"d2 "C"cB AG F2 | "G"G4G4 | DEDC B,CDE |G2 Bc d3("D"D | D)FAd cAFD |
"G"G2 Bd g4 | DEDC B,CDE | G2 Bc d3("D"D |D)F A2 dAFD | "G"G2 BA G4 ||
% abcbook-tune_id 6298c245ab5bf7ad0acf0920


% abcbook-boost 0
% abcbook-tablature 
% abcbook-transpose 
% abcbook-lastupdated 1654178373256
% abcbook-soundfonts 
% abcbook-repeats 1


